X:1250
T:Baxaben cuatro ayeranos (CT 428)
R:Tonada
C:Tradicional
S:Música Tradicional Asturiana, (C) Tello & Tito. Asturies, 2001.
S:http://pagina.de/MusTradAst <telloytito@asturies.org>
N:Xiraldilla, transcrita en Cenera, ayuntamiento de Mieres.
O:Cenera (Mieres)
A:Asturies
Z:Cancioneru de Torner 428
M:3/8
L:1/8
Q:3/8=88
W:Baxaben cuatro ayeranos,
W:todos xuntos de madreñes,
W:y en Santullán pidieron
W:fabes, tocín y morcielles.
W:
W:Que dixo Melchor,
W:que tan vaina yes
W:tú como yo
W:y yo como tú
W:y somos los dos.
K:Cm
G
|c2 c|edc|(B>A) G-|G2 e|g2 g|agf|(e>d) c-|c z G|
c2 c|edc|(B>A) G-|G2 e|g2 g|agf|gg g|
agf|g3|c2 e|ggg|agf|(g>f)e|fed|(e>d)c|dc=B|c3-|c ||


